categories/22/applications-internet.svg

<?xml version="1.0" encoding="UTF-8" standalone="no"?>
<!-- Created with Inkscape (http://www.inkscape.org/) -->

<svg
   xmlns:dc="http://purl.org/dc/elements/1.1/"
   xmlns:cc="http://creativecommons.org/ns#"
   xmlns:rdf="http://www.w3.org/1999/02/22-rdf-syntax-ns#"
   xmlns:svg="http://www.w3.org/2000/svg"
   xmlns="http://www.w3.org/2000/svg"
   xmlns:xlink="http://www.w3.org/1999/xlink"
   xmlns:inkscape="http://www.inkscape.org/namespaces/inkscape"
   version="1.0"
   width="22"
   height="22"
   id="svg2509">
  <metadata
     id="metadata24">
    <rdf:RDF>
      <cc:Work
         rdf:about="">
        <dc:format>image/svg+xml</dc:format>
        <dc:type
           rdf:resource="http://purl.org/dc/dcmitype/StillImage" />
      </cc:Work>
    </rdf:RDF>
  </metadata>
  <defs
     id="defs2511">
    <linearGradient
       id="linearGradient3707-319-631">
      <stop
         id="stop4637"
         style="stop-color:#254b6d;stop-opacity:1"
         offset="0" />
      <stop
         id="stop4639"
         style="stop-color:#415b73;stop-opacity:1"
         offset="0.5" />
      <stop
         id="stop4641"
         style="stop-color:#6195b5;stop-opacity:1"
         offset="1" />
    </linearGradient>
    <linearGradient
       id="linearGradient2867-449-88-871-390-598-476-591-434-148">
      <stop
         id="stop4627"
         style="stop-color:#51cfee;stop-opacity:1"
         offset="0" />
      <stop
         id="stop4629"
         style="stop-color:#49a3d2;stop-opacity:1"
         offset="0.26238" />
      <stop
         id="stop4631"
         style="stop-color:#3470b4;stop-opacity:1"
         offset="0.704952" />
      <stop
         id="stop4633"
         style="stop-color:#273567;stop-opacity:1"
         offset="1" />
    </linearGradient>
    <linearGradient
       id="linearGradient4873">
      <stop
         id="stop4875"
         style="stop-color:#ffffff;stop-opacity:1"
         offset="0" />
      <stop
         id="stop4877"
         style="stop-color:#ffffff;stop-opacity:0"
         offset="1" />
    </linearGradient>
    <linearGradient
       x1="63.397362"
       y1="-12.489107"
       x2="63.397362"
       y2="5.4675598"
       id="linearGradient2405"
       xlink:href="#linearGradient4873"
       gradientUnits="userSpaceOnUse"
       gradientTransform="matrix(1.0862728,0,0,1.0862481,-56.56661,14.813638)" />
    <radialGradient
       cx="61.240059"
       cy="-8.7256308"
       r="9.7552834"
       fx="61.240059"
       fy="-8.7256308"
       id="radialGradient2409"
       xlink:href="#linearGradient2867-449-88-871-390-598-476-591-434-148"
       gradientUnits="userSpaceOnUse"
       gradientTransform="matrix(0,1.8972225,-1.8972215,0,-5.554453,-112.73788)" />
    <linearGradient
       x1="20"
       y1="43"
       x2="20"
       y2="2.6887112"
       id="linearGradient2411"
       xlink:href="#linearGradient3707-319-631"
       gradientUnits="userSpaceOnUse"
       gradientTransform="matrix(0.5277005,0,0,0.5276885,-1.8746522,-1.4544475)" />
  </defs>
  <path
     d="M 21.500024,10.999616 C 21.500024,16.798799 16.798662,21.5 11.000144,21.5 5.2010955,21.5 0.49999997,16.798745 0.49999997,10.999616 c 0,-5.7989178 4.70109553,-10.49964077 10.50014403,-10.49964077 5.798518,0 10.49988,4.70072297 10.49988,10.49964077 l 0,0 z"
     inkscape:connector-curvature="0"
     id="path6495"
     style="fill:url(#radialGradient2409);fill-opacity:1;fill-rule:nonzero;stroke:url(#linearGradient2411);stroke-width:0.99999994;stroke-miterlimit:4;stroke-dasharray:none" />
  <path
     d="M 11.187974,0.90412523 9.949801,1.047707 8.587808,1.42461 C 8.703826,1.3834051 8.821358,1.3384272 8.941573,1.2989756 L 8.782379,1.0118117 8.251734,1.1015504 7.9864097,1.352819 7.5795813,1.4066622 7.2081296,1.5861398 7.0312482,1.6758785 6.9781831,1.7476695 6.7128608,1.8015128 6.5536685,2.1425201 6.3414085,1.7117739 6.2706564,1.8912516 6.3060352,2.3758408 5.9699595,2.6630049 5.7753898,3.1834897 l 0.4068292,0 L 6.3414112,2.8424825 6.394477,2.7168481 C 6.5733556,2.5884928 6.742934,2.4455474 6.9251224,2.3219976 l 0.4245161,0.143582 C 7.6260303,2.6561145 7.9043641,2.8496622 8.180984,3.0399077 L 8.587808,2.6630049 8.127916,2.4655796 7.9156577,2.0348336 7.1373776,1.9450948 7.1196886,1.8553561 7.4557635,1.9271471 7.6503347,1.7297217 8.07485,1.6399829 c 0.100461,-0.049576 0.199286,-0.085283 0.3007,-0.1256341 l -0.265324,0.2512684 0.955163,0.664067 0,0.3948506 L 8.693936,3.2014375 9.189207,4.2065124 9.525282,4.0090857 9.9498,3.3450196 c 0.596838,-0.1872327 1.134748,-0.4051036 1.698068,-0.664067 l -0.03538,0.2512686 0.283009,0.1974252 0.49527,-0.3410073 -0.247634,-0.287164 -0.336077,0.1974253 -0.106129,-0.035895 c 0.02438,-0.011303 0.04627,-0.024406 0.07075,-0.035895 L 12.266953,1.3348712 11.187974,0.90412523 z m -4.8465655,1.93835727 0.4068284,0.2871639 0.3360756,0 0,-0.3410073 -0.4068276,-0.1794774 -0.3360764,0.2333208 0,0 z m 9.3924315,-0.2333208 -0.725217,0.1794774 -0.45989,0.305112 0,0.2692158 -0.725219,0.4666413 0.141507,0.6999638 0.424517,-0.305113 0.265323,0.305113 0.3007,0.1794774 0.194568,-0.5204858 -0.106127,-0.3051112 0.106127,-0.215374 0.424517,-0.3948498 0.194571,0 -0.194571,0.4307473 0,0.3948493 c 0.174974,-0.048327 0.351587,-0.067148 0.530646,-0.08974 l -0.495269,0.3589565 -0.03538,0.2153719 -0.566022,0.4845904 -0.583711,-0.1435832 0,-0.3410072 -0.265322,0.1794779 0.123818,0.3051125 -0.424518,0 -0.229946,0.3948504 -0.28301,0.3230596 -0.512958,0.1076861 0.300699,0.3051119 0.07075,0.3051119 -0.371451,0 -0.49527,0.2692158 0,0.7897002 0.229945,0 0.21226,0.2333213 0.477582,-0.2333213 0.17688,-0.4845896 0.353764,-0.2153729 0.07075,-0.1794769 0.566022,-0.1435821 0.318388,0.358955 0.336075,0.1794769 -0.194571,0.3948512 0.300702,-0.089739 0.159192,-0.3948511 -0.389139,-0.4486935 0.159193,0 0.389141,0.323059 0.07075,0.4307472 0.336074,0.3948505 0.08844,-0.5743279 0.176882,-0.08974 c 0.18828,0.1983264 0.336691,0.4408652 0.495269,0.6640678 l 0.58371,0.035898 0.336076,0.2153736 -0.159193,0.23332 -0.336075,0.3051128 -0.495272,0 -0.654462,-0.2153715 -0.336075,0.035898 -0.247635,0.2871644 -0.707528,-0.7179108 -0.495269,-0.1435823 -0.725217,0.089739 -0.636775,0.1794776 C 12.434342,8.4113555 12.062434,8.83382 11.718617,9.267786 l -0.406829,1.005074 0.194572,0.215372 -0.353764,0.520486 0.38914,0.915335 c 0.323806,0.371669 0.649516,0.740828 0.97285,1.11276 l 0.477582,-0.412798 0.19457,0.25127 0.512959,-0.341008 0.176879,0.197425 0.512959,0 0.3007,0.341007 -0.176882,0.610224 0.353763,0.412799 -0.01769,0.717908 0.265322,0.520488 -0.194569,0.448692 c -0.01897,0.321808 -0.03538,0.629372 -0.03538,0.95123 0.156063,0.43604 0.312527,0.87101 0.459894,1.310187 l 0.106129,0.69996 0,0.358958 0.28301,0 0.406829,-0.269218 0.495269,0 0.742905,-0.843543 -0.08844,-0.287166 0.495272,-0.448691 -0.371454,-0.412799 0.442205,-0.358956 0.424516,-0.269217 0.194571,-0.215373 -0.123817,-0.484589 c 0,-0.407973 1e-6,-0.812419 0,-1.220447 l 0.336075,-0.753804 0.424516,-0.466643 0.459893,-1.148656 0,-0.305112 c -0.228856,0.02925 -0.448218,0.05563 -0.672151,0.07179 l 0.459893,-0.466641 0.636774,-0.430747 0.336078,-0.39485 0,-0.430746 C 20.25654,9.821889 20.179564,9.664913 20.102817,9.519055 l -0.300699,0.358953 -0.229947,-0.269214 -0.336077,-0.269215 0,-0.5563812 0.389142,0.4486922 0.442205,-0.053843 c 0.199492,0.183762 0.391047,0.347159 0.566021,0.556382 L 20.916481,9.41136 c 0,-0.347801 -0.38606,-2.0647894 -1.220485,-3.5177594 C 18.861569,4.4411087 17.396531,3.1116987 17.396532,3.1116987 l -0.10613,0.1974253 -0.389141,0.4307461 -0.49527,-0.5204849 0.49527,0 L 17.131207,2.9681167 16.211422,2.7886391 15.73384,2.6091617 z M 5.1032348,2.8424825 4.9263527,3.309124 c 0,0 -0.3096765,0.051877 -0.3891394,0.071791 -1.0148211,0.9488776 -3.0612654,3.007033 -3.53763863,6.8739908 0.018862,0.08965 0.33607573,0.610222 0.33607573,0.610222 l 0.7782801,0.466641 0.7782808,0.215373 0.3360758,0.412799 0.5129578,0.39485 0.300699,-0.05384 0.2122588,0.107687 0,0.07179 -0.2830114,0.807648 -0.2299464,0.341009 0.070753,0.16153 -0.176882,0.64612 0.6544632,1.220447 0.6721514,0.592275 0.3006983,0.430746 -0.035378,0.897388 0.2122581,0.502536 -0.2122581,0.96918 c 0,0 -0.028324,-0.008 0,0.08974 0.028575,0.09776 1.1823986,0.755367 1.2558605,0.699963 0.073211,-0.05644 0.1415068,-0.107687 0.1415068,-0.107687 L 6.553665,19.515945 6.8543641,19.228781 6.9604927,18.923669 7.4380745,18.762138 7.8095262,17.828857 7.7033968,17.577588 7.9510316,17.182737 8.517054,17.057102 8.800066,16.375088 8.729312,15.531542 9.171518,14.903372 9.242269,14.257253 C 8.635543,13.951965 8.040276,13.638286 7.4380745,13.32397 l -0.3006991,-0.592275 -0.5483345,-0.125634 -0.300699,-0.80765 -0.7252157,0.08974 -0.6367756,-0.466642 -0.6721515,0.592276 0,0.08974 C 4.0528755,12.044561 3.814379,12.035884 3.6351162,11.924046 L 3.4936109,11.4933 l 0,-0.466643 -0.4598928,0.05384 c 0.03701,-0.297239 0.08655,-0.600198 0.1238164,-0.897387 l -0.2653232,0 -0.265323,0.341008 -0.2476348,0.125635 -0.3714517,-0.215374 -0.035377,-0.466643 0.070753,-0.502536 0.5483344,-0.430747 0.4422044,0 L 3.1221585,8.7831885 3.6704922,8.9088214 4.0773206,9.429307 4.1480733,8.567815 4.8556007,7.9755408 5.1032348,7.3473682 5.6338817,7.131996 5.9168924,6.7012494 6.5890445,6.5756148 6.9251195,6.0730776 c -0.3326471,0 -0.6755792,0 -1.0082271,0 l 0.6367761,-0.3051118 0.4422023,0 L 7.5618944,5.5705411 7.6680238,6.1269212 7.9156584,5.7320703 7.632647,5.5346452 7.7034005,5.3013252 7.473454,5.0859511 7.2258179,5.0141603 7.2965721,4.7449443 7.1020009,4.3680422 6.6597965,4.5475192 6.7305492,4.2065124 6.2175914,3.9014 5.8107637,4.61931 5.8461425,4.8705787 5.4393148,5.0500564 5.1916801,5.6064365 5.0678623,5.0859511 4.3780226,4.7987874 4.2542055,4.4039371 5.1916801,3.8655046 5.5985078,3.4706538 5.6338866,3.0040123 5.4039402,2.8783778 5.1032404,2.8424831 l -5.6e-6,-6e-7 z m 7.5882352,0.8614934 0,0.2871621 0.159195,0.179478 0,0.4307462 -0.08844,0.5743278 0.459893,-0.089739 0.336075,-0.3410068 -0.300698,-0.2871646 C 13.159978,4.1942962 13.061153,3.9566909 12.939105,3.7039759 l -0.247635,0 z m -0.389141,0.5743263 -0.28301,0.08974 0.07075,0.5204843 0.371452,-0.1974269 -0.159196,-0.4127974 0,0 z m 5.182641,4.7202601 0.424519,0.5025347 0.512957,1.112763 0.318385,0.358954 -0.159191,0.376905 0.283011,0.341006 c -0.129876,0.0087 -0.255652,0.01795 -0.389141,0.01795 -0.242501,-0.517049 -0.434421,-1.038487 -0.619086,-1.579404 L 17.538035,9.770317 17.361154,9.124198 17.48497,8.9985643 l 0,-2e-6 z"
     inkscape:connector-curvature="0"
     id="path6534"
     style="opacity:0.4;fill:#000000;fill-opacity:1;fill-rule:nonzero;stroke:none" />
  <path
     d="m 20.499999,10.999663 c 0,5.246874 -4.253609,9.500336 -9.499879,9.500336 -5.2467527,0 -9.5001202,-4.253509 -9.5001202,-9.500336 0,-5.2466312 4.2533675,-9.4996623 9.5001202,-9.4996623 5.24627,0 9.499879,4.2530311 9.499879,9.4996623 l 0,0 z"
     inkscape:connector-curvature="0"
     id="path2463"
     style="opacity:0.4;fill:none;stroke:url(#linearGradient2405);stroke-width:0.99999994;stroke-miterlimit:4;stroke-opacity:1;stroke-dasharray:none" />
</svg>

<?xml version="1.0" encoding="UTF-8" standalone="no"?>
<!-- Created with Inkscape (http://www.inkscape.org/) -->
<svg
   xmlns:svg="http://www.w3.org/2000/svg"
   xmlns="http://www.w3.org/2000/svg"
   xmlns:xlink="http://www.w3.org/1999/xlink"
   version="1.0"
   width="22"
   height="22"
   id="svg2509">
  <defs
     id="defs2511">
    <linearGradient
       id="linearGradient3707-319-631">
      <stop
         id="stop4637"
         style="stop-color:#254b6d;stop-opacity:1"
         offset="0" />
      <stop
         id="stop4639"
         style="stop-color:#415b73;stop-opacity:1"
         offset="0.5" />
      <stop
         id="stop4641"
         style="stop-color:#6195b5;stop-opacity:1"
         offset="1" />
    </linearGradient>
    <linearGradient
       id="linearGradient2867-449-88-871-390-598-476-591-434-148">
      <stop
         id="stop4627"
         style="stop-color:#51cfee;stop-opacity:1"
         offset="0" />
      <stop
         id="stop4629"
         style="stop-color:#49a3d2;stop-opacity:1"
         offset="0.26238" />
      <stop
         id="stop4631"
         style="stop-color:#3470b4;stop-opacity:1"
         offset="0.704952" />
      <stop
         id="stop4633"
         style="stop-color:#273567;stop-opacity:1"
         offset="1" />
    </linearGradient>
    <linearGradient
       id="linearGradient4873">
      <stop
         id="stop4875"
         style="stop-color:#ffffff;stop-opacity:1"
         offset="0" />
      <stop
         id="stop4877"
         style="stop-color:#ffffff;stop-opacity:0"
         offset="1" />
    </linearGradient>
    <linearGradient
       x1="63.397362"
       y1="-12.489107"
       x2="63.397362"
       y2="5.4675598"
       id="linearGradient2405"
       xlink:href="#linearGradient4873"
       gradientUnits="userSpaceOnUse"
       gradientTransform="matrix(1.0862728,0,0,1.0862481,-56.56661,14.813638)" />
    <radialGradient
       cx="61.240059"
       cy="-8.7256308"
       r="9.7552834"
       fx="61.240059"
       fy="-8.7256308"
       id="radialGradient2409"
       xlink:href="#linearGradient2867-449-88-871-390-598-476-591-434-148"
       gradientUnits="userSpaceOnUse"
       gradientTransform="matrix(0,1.8972225,-1.8972215,0,-5.554453,-112.73788)" />
    <linearGradient
       x1="20"
       y1="43"
       x2="20"
       y2="2.6887112"
       id="linearGradient2411"
       xlink:href="#linearGradient3707-319-631"
       gradientUnits="userSpaceOnUse"
       gradientTransform="matrix(0.5277005,0,0,0.5276885,-1.8746522,-1.4544475)" />
  </defs>
  <path
     d="M 21.500024,10.999616 C 21.500024,16.798799 16.798662,21.5 11.000144,21.5 C 5.2010955,21.5 0.49999997,16.798745 0.49999997,10.999616 C 0.49999997,5.2006982 5.2010955,0.49997523 11.000144,0.49997523 C 16.798662,0.49997523 21.500024,5.2006982 21.500024,10.999616 L 21.500024,10.999616 z"
     id="path6495"
     style="fill:url(#radialGradient2409);fill-opacity:1;fill-rule:nonzero;stroke:url(#linearGradient2411);stroke-width:0.99999994;stroke-miterlimit:4;stroke-dasharray:none" />
  <path
     d="M 11.187974,0.90412523 L 9.949801,1.047707 L 8.587808,1.42461 C 8.703826,1.3834051 8.821358,1.3384272 8.941573,1.2989756 L 8.782379,1.0118117 L 8.251734,1.1015504 L 7.9864097,1.352819 L 7.5795813,1.4066622 L 7.2081296,1.5861398 L 7.0312482,1.6758785 L 6.9781831,1.7476695 L 6.7128608,1.8015128 L 6.5536685,2.1425201 L 6.3414085,1.7117739 L 6.2706564,1.8912516 L 6.3060352,2.3758408 L 5.9699595,2.6630049 L 5.7753898,3.1834897 L 6.182219,3.1834897 L 6.3414112,2.8424825 L 6.394477,2.7168481 C 6.5733556,2.5884928 6.742934,2.4455474 6.9251224,2.3219976 L 7.3496385,2.4655796 C 7.6260303,2.6561145 7.9043641,2.8496622 8.180984,3.0399077 L 8.587808,2.6630049 L 8.127916,2.4655796 L 7.9156577,2.0348336 L 7.1373776,1.9450948 L 7.1196886,1.8553561 L 7.4557635,1.9271471 L 7.6503347,1.7297217 L 8.07485,1.6399829 C 8.175311,1.5904068 8.274136,1.5546995 8.37555,1.5143488 L 8.110226,1.7656172 L 9.065389,2.4296842 L 9.065389,2.8245348 L 8.693936,3.2014375 L 9.189207,4.2065124 L 9.525282,4.0090857 L 9.9498,3.3450196 C 10.546638,3.1577869 11.084548,2.939916 11.647868,2.6809526 L 11.612489,2.9322212 L 11.895498,3.1296464 L 12.390768,2.7886391 L 12.143134,2.5014751 L 11.807057,2.6989004 L 11.700928,2.6630055 C 11.725306,2.6517029 11.747198,2.6385991 11.771681,2.6271108 L 12.266953,1.3348712 L 11.187974,0.90412523 z M 6.3414085,2.8424825 L 6.7482369,3.1296464 L 7.0843125,3.1296464 L 7.0843125,2.7886391 L 6.6774849,2.6091617 L 6.3414085,2.8424825 L 6.3414085,2.8424825 z M 15.73384,2.6091617 L 15.008623,2.7886391 L 14.548733,3.0937511 L 14.548733,3.3629669 L 13.823514,3.8296082 L 13.965021,4.529572 L 14.389538,4.224459 L 14.654861,4.529572 L 14.955561,4.7090494 L 15.150129,4.1885636 L 15.044002,3.8834524 L 15.150129,3.6680784 L 15.574646,3.2732286 L 15.769217,3.2732286 L 15.574646,3.7039759 L 15.574646,4.0988252 C 15.74962,4.0504985 15.926233,4.0316771 16.105292,4.0090857 L 15.610023,4.3680422 L 15.574644,4.5834141 L 15.008622,5.0680045 L 14.424911,4.9244213 L 14.424911,4.5834141 L 14.159589,4.762892 L 14.283407,5.0680045 L 13.858889,5.0680045 L 13.628943,5.4628549 L 13.345933,5.7859145 L 12.832975,5.8936006 L 13.133674,6.1987125 L 13.204426,6.5038244 L 12.832975,6.5038244 L 12.337705,6.7730402 L 12.337705,7.5627404 L 12.56765,7.5627404 L 12.77991,7.7960617 L 13.257492,7.5627404 L 13.434372,7.0781508 L 13.788136,6.8627779 L 13.858889,6.683301 L 14.424911,6.5397189 L 14.743299,6.8986739 L 15.079374,7.0781508 L 14.884803,7.473002 L 15.185505,7.3832635 L 15.344697,6.9884124 L 14.955558,6.5397189 L 15.114751,6.5397189 L 15.503892,6.8627779 L 15.574644,7.2935251 L 15.910718,7.6883756 L 15.999161,7.1140477 L 16.176043,7.0243078 C 16.364323,7.2226342 16.512734,7.465173 16.671312,7.6883756 L 17.255022,7.7242738 L 17.591098,7.9396474 L 17.431905,8.1729674 L 17.09583,8.4780802 L 16.600558,8.4780802 L 15.946096,8.2627087 L 15.610021,8.2986068 L 15.362386,8.5857712 L 14.654858,7.8678604 L 14.159589,7.7242781 L 13.434372,7.8140172 L 12.797597,7.9934948 C 12.434342,8.4113555 12.062434,8.83382 11.718617,9.267786 L 11.311788,10.27286 L 11.50636,10.488232 L 11.152596,11.008718 L 11.541736,11.924053 C 11.865542,12.295722 12.191252,12.664881 12.514586,13.036813 L 12.992168,12.624015 L 13.186738,12.875285 L 13.699697,12.534277 L 13.876576,12.731702 L 14.389535,12.731702 L 14.690235,13.072709 L 14.513353,13.682933 L 14.867116,14.095732 L 14.849427,14.81364 L 15.114749,15.334128 L 14.92018,15.78282 C 14.901211,16.104628 14.884801,16.412192 14.884801,16.73405 C 15.040864,17.17009 15.197328,17.60506 15.344695,18.044237 L 15.450824,18.744197 L 15.450824,19.103155 L 15.733834,19.103155 L 16.140663,18.833937 L 16.635932,18.833937 L 17.378837,17.990394 L 17.290395,17.703228 L 17.785667,17.254537 L 17.414213,16.841738 L 17.856418,16.482782 L 18.280934,16.213565 L 18.475505,15.998192 L 18.351688,15.513603 C 18.351688,15.10563 18.351689,14.701184 18.351688,14.293156 L 18.687763,13.539352 L 19.112279,13.072709 L 19.572172,11.924053 L 19.572172,11.618941 C 19.343316,11.648193 19.123954,11.674569 18.900021,11.690733 L 19.359914,11.224092 L 19.996688,10.793345 L 20.332766,10.398495 L 20.332766,9.967749 C 20.25654,9.821889 20.179564,9.664913 20.102817,9.519055 L 19.802118,9.878008 L 19.572171,9.608794 L 19.236094,9.339579 L 19.236094,8.7831978 L 19.625236,9.23189 L 20.067441,9.178047 C 20.266933,9.361809 20.458488,9.525206 20.633462,9.734429 L 20.916481,9.41136 C 20.916481,9.063559 20.530421,7.3465706 19.695996,5.8936006 C 18.861569,4.4411087 17.396531,3.1116987 17.396532,3.1116987 L 17.290402,3.309124 L 16.901261,3.7398701 L 16.405991,3.2193852 L 16.901261,3.2193852 L 17.131207,2.9681167 L 16.211422,2.7886391 L 15.73384,2.6091617 z M 5.1032348,2.8424825 L 4.9263527,3.309124 C 4.9263527,3.309124 4.6166762,3.3610007 4.5372133,3.3809152 C 3.5223922,4.3297928 1.4759479,6.3879482 0.99957467,10.254906 C 1.0184367,10.34456 1.3356504,10.865128 1.3356504,10.865128 L 2.1139305,11.331769 L 2.8922113,11.547142 L 3.2282871,11.959941 L 3.7412449,12.354791 L 4.0419439,12.300949 L 4.2542027,12.408636 L 4.2542027,12.480425 L 3.9711913,13.288073 L 3.7412449,13.629082 L 3.8119975,13.790612 L 3.6351155,14.436732 L 4.2895787,15.657179 L 4.9617301,16.249454 L 5.2624284,16.6802 L 5.2270503,17.577588 L 5.4393084,18.080124 L 5.2270503,19.049304 C 5.2270503,19.049304 5.1987264,19.041335 5.2270503,19.139041 C 5.2556254,19.236798 6.4094489,19.894408 6.4829108,19.839004 C 6.5561219,19.782568 6.6244176,19.731317 6.6244176,19.731317 L 6.553665,19.515945 L 6.8543641,19.228781 L 6.9604927,18.923669 L 7.4380745,18.762138 L 7.8095262,17.828857 L 7.7033968,17.577588 L 7.9510316,17.182737 L 8.517054,17.057102 L 8.800066,16.375088 L 8.729312,15.531542 L 9.171518,14.903372 L 9.242269,14.257253 C 8.635543,13.951965 8.040276,13.638286 7.4380745,13.32397 L 7.1373754,12.731695 L 6.5890409,12.606061 L 6.2883419,11.798411 L 5.5631262,11.88815 L 4.9263506,11.421508 L 4.2541991,12.013784 L 4.2541991,12.103524 C 4.0528755,12.044561 3.814379,12.035884 3.6351162,11.924046 L 3.4936109,11.4933 L 3.4936109,11.026657 L 3.0337181,11.0805 C 3.0707279,10.783261 3.1202685,10.480302 3.1575345,10.183113 L 2.8922113,10.183113 L 2.6268883,10.524121 L 2.3792535,10.649756 L 2.0078018,10.434382 L 1.9724251,9.967739 L 2.0431779,9.465203 L 2.5915123,9.034456 L 3.0337167,9.034456 L 3.1221585,8.7831885 L 3.6704922,8.9088214 L 4.0773206,9.429307 L 4.1480733,8.567815 L 4.8556007,7.9755408 L 5.1032348,7.3473682 L 5.6338817,7.131996 L 5.9168924,6.7012494 L 6.5890445,6.5756148 L 6.9251195,6.0730776 C 6.5924724,6.0730776 6.2495403,6.0730776 5.9168924,6.0730776 L 6.5536685,5.7679658 L 6.9958708,5.7679658 L 7.5618944,5.5705411 L 7.6680238,6.1269212 L 7.9156584,5.7320703 L 7.632647,5.5346452 L 7.7034005,5.3013252 L 7.473454,5.0859511 L 7.2258179,5.0141603 L 7.2965721,4.7449443 L 7.1020009,4.3680422 L 6.6597965,4.5475192 L 6.7305492,4.2065124 L 6.2175914,3.9014 L 5.8107637,4.61931 L 5.8461425,4.8705787 L 5.4393148,5.0500564 L 5.1916801,5.6064365 L 5.0678623,5.0859511 L 4.3780226,4.7987874 L 4.2542055,4.4039371 L 5.1916801,3.8655046 L 5.5985078,3.4706538 L 5.6338866,3.0040123 L 5.4039402,2.8783778 L 5.1032404,2.8424831 L 5.1032348,2.8424825 z M 12.69147,3.7039759 L 12.69147,3.991138 L 12.850665,4.170616 L 12.850665,4.6013622 L 12.762224,5.17569 L 13.222117,5.0859511 L 13.558192,4.7449443 L 13.257494,4.4577797 C 13.159978,4.1942962 13.061153,3.9566909 12.939105,3.7039759 L 12.69147,3.7039759 z M 12.302329,4.2783022 L 12.019319,4.3680422 L 12.090073,4.8885265 L 12.461525,4.6910996 L 12.302329,4.2783022 L 12.302329,4.2783022 z M 17.48497,8.9985623 L 17.909489,9.501097 L 18.422446,10.61386 L 18.740831,10.972814 L 18.58164,11.349719 L 18.864651,11.690725 C 18.734775,11.699447 18.608999,11.708676 18.47551,11.708676 C 18.233009,11.191627 18.041089,10.670189 17.856424,10.129272 L 17.538035,9.770317 L 17.361154,9.124198 L 17.48497,8.9985643 L 17.48497,8.9985623 z"
     id="path6534"
     style="opacity:0.4;fill:#000000;fill-opacity:1;fill-rule:nonzero;stroke:none" />
  <path
     d="M 20.499999,10.999663 C 20.499999,16.246537 16.24639,20.499999 11.00012,20.499999 C 5.7533673,20.499999 1.4999998,16.24649 1.4999998,10.999663 C 1.4999998,5.7530318 5.7533673,1.5000007 11.00012,1.5000007 C 16.24639,1.5000007 20.499999,5.7530318 20.499999,10.999663 L 20.499999,10.999663 z"
     id="path2463"
     style="opacity:0.4;fill:none;fill-opacity:1;fill-rule:nonzero;stroke:url(#linearGradient2405);stroke-width:0.99999994;stroke-miterlimit:4;stroke-dasharray:none;stroke-opacity:1" />
</svg>
